takeahint-client/src/components/FormInput/sync.svg

<svg width="342" height="470" viewBox="0 0 342 470" xmlns="http://www.w3.org/2000/svg"><title>sync</title><g fill-rule="nonzero" fill="#114b5f"><path d="M170.667 362.667c-70.72 0-128-57.28-128-128 0-21.653 5.44-41.92 14.827-59.84L26.347 143.68C9.813 170.133 0 201.173 0 234.667c0 94.293 76.373 170.667 170.667 170.667v64L256 384l-85.333-85.333v64zM170.667 64V0L85.334 85.333l85.333 85.333v-64c70.72 0 128 57.28 128 128 0 21.653-5.44 41.92-14.827 59.84l31.147 31.147c16.533-26.453 26.347-57.493 26.347-90.987C341.334 140.373 264.96 64 170.667 64z"/></g></svg>

<?xml version="1.0" encoding="UTF-8"?>
<svg width="342px" height="470px" viewBox="0 0 342 470" version="1.1" xmlns="http://www.w3.org/2000/svg" xmlns:xlink="http://www.w3.org/1999/xlink">
	<title>sync</title>
	<g id="Page-1" stroke="none" stroke-width="1" fill="none" fill-rule="evenodd">
		<g id="sync" fill-rule="nonzero">
			<path d="M170.667,362.667 C99.947,362.667 42.667,305.387 42.667,234.667 C42.667,213.014 48.107,192.747 57.494,174.827 L26.347,143.68 C9.813,170.133 0,201.173 0,234.667 C0,328.96 76.373,405.334 170.667,405.334 L170.667,469.334 L256,384 L170.667,298.667 L170.667,362.667 Z" id="Path" fill="#114b5f"></path>
			<path d="M170.667,64 L170.667,0 L85.334,85.333 L170.667,170.666 L170.667,106.666 C241.387,106.666 298.667,163.946 298.667,234.666 C298.667,256.319 293.227,276.586 283.84,294.506 L314.987,325.653 C331.52,299.2 341.334,268.16 341.334,234.666 C341.334,140.373 264.96,64 170.667,64 Z" id="Path" fill="#114b5f"></path>
		</g>
	</g>
</svg>
